build/images/icons/people-group.svg

<svg width="44" height="43" viewBox="0 0 44 43" fill="none" xmlns="http://www.w3.org/2000/svg">
<path d="M43.9998 24.4206C43.9998 24.4206 43.8321 19.6289 42.3946 17.5326C42.0242 17.1015 41.544 16.7786 41.005 16.5982L40.8014 16.5263C40.2531 16.2705 39.6889 16.0505 39.1123 15.8675L38.6331 15.6758C38.0461 15.3883 37.555 15.0648 37.4352 14.7534C37.4459 14.6901 37.4406 14.6251 37.4196 14.5644C37.3987 14.5037 37.3629 14.4492 37.3154 14.406C38.0392 13.5878 38.5313 12.5911 38.7409 11.519C38.936 11.3073 39.0578 11.0385 39.0883 10.7523C39.2081 10.333 39.3519 9.55438 39.0883 9.24292C39.3189 8.58387 39.3892 7.87939 39.2934 7.18778C39.1975 6.49618 38.9384 5.83734 38.5373 5.26581C38.0042 4.64676 37.293 4.20746 36.5008 4.00798L35.8659 3.79236C35.3016 3.6146 34.7251 3.47847 34.1409 3.38506H33.9972C33.9141 3.40122 33.8287 3.40122 33.7456 3.38506C33.5121 3.37735 33.2796 3.41814 33.0628 3.50485C32.4506 3.75307 31.8945 4.12165 31.4274 4.58875C30.9603 5.05585 30.5917 5.61197 30.3435 6.22415C30.1159 7.17708 30.1159 8.1702 30.3435 9.12313L30.2117 9.24292C30.0266 9.72902 30.0266 10.2662 30.2117 10.7523C30.2477 11.037 30.3688 11.3042 30.5591 11.519C30.741 12.5966 31.2226 13.6012 31.9487 14.418C31.8609 14.5027 31.7916 14.6047 31.7451 14.7174C31.6372 15.0529 31.0622 15.4122 30.4154 15.7237C30.2505 15.1945 30.0212 14.6875 29.7325 14.2143C29.359 13.7867 28.8799 13.4645 28.3429 13.2799L28.1273 13.22C27.5841 12.9587 27.0238 12.7345 26.4502 12.5492L25.971 12.3575C25.3841 12.07 24.8929 11.7466 24.7731 11.4351C24.7877 11.3729 24.7854 11.3078 24.7664 11.2468C24.7475 11.1857 24.7126 11.1308 24.6653 11.0877C25.3857 10.2688 25.8738 9.27199 26.0789 8.20073C26.2735 7.98746 26.3989 7.72011 26.4382 7.43405C26.558 7.0028 26.7018 6.23613 26.4382 5.92466C26.6735 5.26703 26.7473 4.56251 26.6535 3.8704C26.5597 3.17829 26.301 2.51884 25.8992 1.94755C25.3559 1.3099 24.6273 0.857637 23.8148 0.653789L23.1919 0.438162C22.6304 0.252933 22.0529 0.120585 21.4668 0.0428467L21.3231 0.0428467C21.24 0.0590039 21.1546 0.0590039 21.0715 0.0428467C20.828 0.0478958 20.5878 0.100811 20.3647 0.198577C19.7584 0.451756 19.2081 0.822353 18.7455 1.28904C18.2829 1.75573 17.9172 2.30929 17.6694 2.91787C17.4422 3.87489 17.4422 4.87181 17.6694 5.82883C17.62 5.86225 17.5756 5.90259 17.5376 5.94862C17.2741 6.29602 17.4298 7.02676 17.5376 7.45801C17.5759 7.73849 17.6969 8.00121 17.885 8.2127C18.0629 9.29047 18.5355 10.298 19.2507 11.1237C19.1636 11.2018 19.0977 11.3007 19.059 11.4112C18.7835 12.2617 15.4652 13.256 15.4652 13.256C14.9265 13.4429 14.4469 13.7695 14.0756 14.2023C13.7909 14.6505 13.5654 15.1337 13.4048 15.6398C12.8178 15.3404 12.3267 15.0169 12.2069 14.7055C12.2176 14.6422 12.2122 14.5772 12.1913 14.5165C12.1704 14.4558 12.1345 14.4013 12.0871 14.3581C12.8169 13.5439 13.3098 12.5455 13.5126 11.4711C13.7077 11.2594 13.8294 10.9906 13.86 10.7044C13.9918 10.2851 14.1355 9.50646 13.86 9.195C14.0956 8.53476 14.1685 7.82745 14.0726 7.13304C13.9766 6.43862 13.7147 5.77757 13.309 5.20591C12.7662 4.61071 12.0564 4.19319 11.2725 4.00798L10.6615 3.73246C10.1043 3.54673 9.53075 3.41436 8.94851 3.33714C8.90137 3.32497 8.8519 3.32497 8.80476 3.33714C8.72158 3.35219 8.63638 3.35219 8.55319 3.33714C8.31598 3.33112 8.0799 3.37182 7.8584 3.45694C7.24506 3.71056 6.68918 4.08528 6.224 4.55869C5.75882 5.0321 5.39391 5.59447 5.15108 6.21217C4.90922 7.16336 4.90922 8.15996 5.15108 9.11115C5.09854 9.14552 5.05368 9.19038 5.01931 9.24292C4.75577 9.57834 4.89952 10.3211 5.01931 10.7523C5.05234 11.0343 5.17398 11.2985 5.36671 11.507C5.555 12.5861 6.03563 13.593 6.75631 14.418C6.66923 14.4961 6.6033 14.595 6.56464 14.7055C6.28911 15.556 2.97086 16.5503 2.97086 16.5503C2.43156 16.7362 1.95178 17.0629 1.58126 17.4966C0.16771 19.6649 0 24.4206 0 24.4206C0 25.1993 1.09011 38.3765 11.3204 42.15C11.4881 40.2572 11.9553 36.7114 13.2491 34.8067C13.7083 34.2622 14.3035 33.8489 14.9741 33.6087C14.9741 33.6087 19.0949 32.4108 19.4304 31.2848C19.4727 31.1404 19.5559 31.0115 19.67 30.9134C18.7869 29.8923 18.1988 28.6499 17.9689 27.3196C17.7278 27.0583 17.5767 26.7267 17.5376 26.3733C17.3819 25.8342 17.2022 24.9118 17.5376 24.4805C17.5844 24.4196 17.6411 24.3669 17.7054 24.3248C17.422 23.1436 17.422 21.9122 17.7054 20.731C18.0174 19.966 18.479 19.271 19.0633 18.6868C19.6475 18.1026 20.3425 17.641 21.1075 17.3289C21.3815 17.2202 21.6755 17.1712 21.97 17.1852C22.0772 17.2013 22.1862 17.2013 22.2934 17.1852C22.3488 17.1742 22.4058 17.1742 22.4611 17.1852C23.1927 17.2924 23.9139 17.4607 24.6174 17.6883L25.408 17.9518C26.4021 18.2012 27.2939 18.7539 27.9596 19.5331C29.3492 21.1024 28.9659 23.4024 28.6544 24.5165L28.7143 24.5764C29.0377 25.0076 28.858 25.942 28.7143 26.4691C28.6722 26.8252 28.5216 27.1598 28.283 27.4274C28.0171 28.7624 27.4011 30.0027 26.4981 31.0212C26.5559 31.0756 26.5993 31.1434 26.6244 31.2187C26.6495 31.294 26.6555 31.3743 26.6419 31.4525C26.7737 31.8478 27.3846 32.2551 28.1153 32.6504C28.295 32.7343 28.4867 32.8061 28.7143 32.89C29.4339 33.1251 30.1381 33.4052 30.8226 33.7285L31.0982 33.8124C31.7688 34.0525 32.3639 34.4658 32.8232 35.0103C33.9003 37.0765 34.5328 39.3453 34.68 41.6708C44.1556 38.1728 43.9998 24.4206 43.9998 24.4206Z" fill="#10182E"/>
</svg>

<svg width="44" height="43" fill="none" xmlns="http://www.w3.org/2000/svg"><path d="M44 24.42s-.168-4.791-1.605-6.887a3.15 3.15 0 00-1.39-.935l-.204-.072a14.043 14.043 0 00-1.689-.659l-.479-.191c-.587-.288-1.078-.611-1.198-.923a.383.383 0 00-.12-.347 6.133 6.133 0 001.426-2.887c.195-.212.317-.48.347-.767.12-.419.264-1.198 0-1.51a4.396 4.396 0 00-.55-3.976A3.965 3.965 0 0036.5 4.008l-.635-.216a12.1 12.1 0 00-1.725-.407h-.144a.659.659 0 01-.251 0 1.689 1.689 0 00-.683.12 4.935 4.935 0 00-2.72 2.72 6.24 6.24 0 000 2.898l-.131.12a2.12 2.12 0 000 1.51c.036.284.157.551.347.766a5.822 5.822 0 001.39 2.899.885.885 0 00-.204.3c-.108.335-.683.694-1.33 1.006a6.759 6.759 0 00-.682-1.51 3.246 3.246 0 00-1.39-.934l-.216-.06a13.302 13.302 0 00-1.677-.67l-.479-.193c-.587-.287-1.078-.61-1.198-.922a.358.358 0 00-.108-.347A6.11 6.11 0 0026.08 8.2c.194-.214.32-.48.36-.767.119-.431.263-1.198 0-1.51a4.36 4.36 0 00-.54-3.976A4.025 4.025 0 0023.815.654l-.623-.216a9.49 9.49 0 00-1.725-.395h-.144a.659.659 0 01-.252 0 1.857 1.857 0 00-.706.156 4.984 4.984 0 00-2.696 2.719 6.301 6.301 0 000 2.91.625.625 0 00-.131.12c-.264.348-.108 1.079 0 1.51.038.28.159.543.347.755a5.918 5.918 0 001.366 2.91.694.694 0 00-.192.288c-.276.85-3.594 1.845-3.594 1.845a3.223 3.223 0 00-1.39.946 6.15 6.15 0 00-.67 1.438c-.587-.3-1.078-.623-1.198-.934a.384.384 0 00-.12-.348 5.99 5.99 0 001.426-2.887c.195-.212.316-.48.347-.767.132-.419.276-1.198 0-1.509a4.36 4.36 0 00-.551-3.99 4.001 4.001 0 00-2.036-1.197l-.611-.276a9.272 9.272 0 00-1.713-.395.288.288 0 00-.144 0 .707.707 0 01-.252 0 1.809 1.809 0 00-.695.12 4.935 4.935 0 00-2.707 2.755 5.882 5.882 0 000 2.9.455.455 0 00-.132.13c-.263.336-.12 1.08 0 1.51.033.282.155.546.348.755a5.99 5.99 0 001.39 2.911.694.694 0 00-.192.288c-.276.85-3.594 1.844-3.594 1.844-.54.186-1.02.513-1.39.947C.168 19.665 0 24.42 0 24.42c0 .778 1.09 13.956 11.32 17.729.168-1.893.635-5.439 1.93-7.343a4.038 4.038 0 011.724-1.198s4.12-1.198 4.456-2.324a.778.778 0 01.24-.372 7.427 7.427 0 01-1.701-3.593 1.665 1.665 0 01-.431-.947c-.156-.539-.336-1.461 0-1.893a.685.685 0 01.167-.155 7.702 7.702 0 010-3.594 6.203 6.203 0 013.403-3.402c.273-.109.567-.158.862-.144.107.016.216.016.323 0a.43.43 0 01.168 0c.732.107 1.453.276 2.156.503l.791.264c.994.25 1.886.802 2.552 1.581 1.39 1.57 1.006 3.87.694 4.983l.06.06c.324.432.144 1.366 0 1.893-.042.356-.192.69-.431.958a7.678 7.678 0 01-1.785 3.594.48.48 0 01.144.431c.132.396.743.803 1.473 1.198.18.084.372.156.6.24a18.2 18.2 0 012.108.838l.275.084c.67.24 1.266.654 1.725 1.198a16.69 16.69 0 011.857 6.66C44.156 38.174 44 24.42 44 24.42z" fill="#10182E"/></svg>
